X:1490
T:the Girl I Left behind mee
A:Wyresdale, Lancashire
B:E and J Winder, 1835-41
L:1/8
M:2/4
O:England
Z:Richard Robinson 
%%TranscriptionNotes:Slightly edited for clarity
%%TUNEURL: http://www.leeds.ac.uk/music/Info/RRTuneBk/gettune/00001235.html
%%ID:00001235
K:G
B/d/ | e>dBG | B/(A/B/G/) E>D | GG (G/A/B/)c/         | d2 B\
B/d/ | e>dBA | B/(A/B/A/ E)D  | G/(F/G/E/) (D/E/F/D/) | G2 G2 ::
B>c ee/f/ | g/f/e/d/ B2 | ee/f/ g/f/e/d/ | efge | \
dgdc | B/(A/B/A/) ED | G/(F/G/E/) (D/E/F/D/) | G2 G2 |]
